X:67
T:Knight Hall. JJo.067
S:J.Jones MS,1801,N.Shrops.
A:North Shropshire
Z:Neil Brookes 2006
M:6/8
L:1/8
Q:3/8=120
K:C
g|e2cA2d|cBcG3|c2cd2e|f2ed2g|!
e2cA3|{d}cBcG3|c2cd2f|efd[c3C3]:|!
|:G2GE2C|G2GE2C|c2cd2e|f2ed3|!
G2GE2C|G2GE2C|cBcd2f|efd [c3C3]:|

